X: 26556
T: Mick Carr's
R: strathspey
M: 4/4
K: Dmajor
F2FD GAGD|F2FF GECE|F2FD G2FG|Addc dBAG|
F2FD GAGD|F2FF GECE|F2FD G2FG|Addc dfed||
c<AAG F<GAB|=c<AAG F<DD2|d2AF G2FG|Addc dfed|
c<AAG F<GAB|=c<AAG F<DD2|d2AF G2FG|Addc dBAG||

